X:1
T:Title
%%score { ( 1 4 5 ) | ( 2 3 ) }
L:1/8
Q:1/4=106
M:4/4
K:C
V:1 treble nm="Grand Piano"
V:4 treble 
V:5 treble 
V:2 bass 
V:3 bass 
V:1
 [EG]2 [EG]2 [EG]3 [EG] | [_E^F][=EG][=FA][EG] [EG]2 [Ec]2 | c2 A2 F2 A2 | [EG]2 E2 D2 G2 | %4
w: W.~H.~Doane * * *||||
 [EG]2 [EG]2 [EG]3 [EG] | [_E^F][=EG][=FA][EG] [EG]2 [Ec]2 | B2 B2 c2 d2 | G6 [EG]G | %8
w: ||||
 G2 d>d d2 [FB]2 | [Ec]2 [EG]>[EG] [EG]2 [CE][CE] | [DF]2 [DF]>[DF] [DF][FA][EG][DF] | %11
w: |||
 [CE]2 [DF]2 [EG]2 [EG][EG] | A2 A>A [Ac]2 [GB][FA] |[M:7/8] [EG]2 [Ec] [Fd] [Ge]3 | %14
w: |||
[M:1/4] [Gd][Gc] |[M:4/4] A2 c2 c2 [FB]2 | [Ec]6 z2 | [Ge]6 z2 | [EG]2 [CE]2 [Ec]4 | %19
w: |||||
 [DB]4- [DB]c[Fd]B | [Fd]2 [Ec]2 E4 | [Ge]6 z2 | d2 c2 A2 c>A | G2 c2 c2 [DFB]2 | [CEc]6 z2 |] %25
w: ||||||
V:2
 [C,C]2 [C,C]2 [C,C]3 [C,C] | [C,C][C,C][C,C][C,C] [C,C]2 [C,G,]2 | %2
 [F,A,F]2 [F,CF]2 [F,A,C]2 [F,CF]2 | z4[K:treble] B,2 z2 | [C,C]2 [C,C]2 [C,C]3 [C,C] | %5
 [C,C][C,C][C,C][C,C] [C,C]2 [C,G,]2 | [D,G,D]2 [D,G,D]2 [D,^F,D]2 [F,CD]2 | [G,B,D]6 [C,C][E,CE] | %8
 [G,B,F]2 [G,B,F]>[G,B,F] [G,B,F]2[K:bass] [G,,G,]2 | [C,G,]2 [C,C]>[C,C] [C,C]2 [C,G,][C,G,] | %10
 [G,,G,]2 [G,,G,]>[G,,G,] [G,,G,]2 [G,,G,][G,,G,] | [C,G,]2 [C,G,]2 [C,C]2 [C,C][C,C] | %12
 [F,CF]2 [F,CF]>[F,CF] [F,C]2 [F,C][F,C] |[M:7/8] [C,C]2 [C,G,] [C,G,] [C,C]3 | %14
[M:1/4] [D,B,][E,C] |[M:4/4] [F,CF]2 [F,A,F]2 [G,E]2 [G,,G,]2 | [C,G,]6 z2 | %17
 [C,C]2 C,2 z F .[C,A,]2 | [C,C]2 [C,G,]2 [C,G,]4 | G,2 G,2 z[K:treble] E z F | %20
 [C,G,]2 [C,G,]2 [C,C]4 | [C,C]2 C,2 z[K:treble] F z G | [F,A,F]2 [F,A,F]2 [F,CF]2 [F,A,F]>[F,CF] | %23
 [G,CE]2 [G,CE]2 [G,DF]2[K:bass] G,,2 | C,6 z2 |] %25
V:3
 x8 | x8 | x8 | [C,C]2 [C,G,C]2[K:treble] G,2- [G,B,F]2 | x8 | x8 | x8 | x8 | x6[K:bass] x2 | x8 | %10
 x8 | x8 | x8 |[M:7/8] x7 |[M:1/4] x2 |[M:4/4] x8 | x8 | z4 C,2 z2 | x8 | z4 G,2[K:treble] G,2 | %20
 x8 | z4 C,2[K:treble] [E,C]2 | x8 | x6[K:bass] x2 | x8 |] %25
V:4
 x8 | x8 | x8 | x8 | x8 | x8 | x8 | x8 | x8 | x8 | x8 | x8 | x8 |[M:7/8] x7 |[M:1/4] x2 | %15
[M:4/4] x8 | x8 | z2 C2 z d[Ec][CFA] | x8 | x8 | x8 | z2 C2 z d[Gc]B | x8 | x8 | x8 |] %25
V:5
 x8 | x8 | x8 | x8 | x8 | x8 | x8 | x8 | x8 | x8 | x8 | x8 | x8 |[M:7/8] x7 |[M:1/4] x2 | %15
[M:4/4] x8 | x8 | z4 G,2 z2 | x8 | x8 | x8 | z4 C2 z2 | x8 | x8 | x8 |] %25

